X:130
T: ALS ICH EIN JUNG GESELLE WAR
N: Z0129
O: Europa, Mitteleuropa, Deutschland, Ober - Deutschland
R: Erzaehlung, lustige Romanze
M: 2/4
L: 1/8
K: F
C | FAAG | GFF
F | AccA | G2z
C | FAAG | GFF
F | AccA | G2z
F | Accc | c2A2 |
f2d2 | c2A
c | BGFE | FAc
A | BGFE | F3

@@@ Tune index: 9888
